X: 238
T:Der Freishutz Waltz. JaW.237
M:3/4
Q:90
C:"Waltz Figure"
S:James Winder Ms, Lancashire, 1835-41
R:Waltz
O:England
A:Wyresdale,Lancashire
N:"Ber Freishutz Waltz" in MS..
H:1/8
Z:vmp.Chris Partington, Aug 2004
K:C
.G.c.e|(ag).e.G.c.e|(ag).e.G.B.d|(gf).d.G.B.d|(fe).c.G.c.e|!
(ag).e.G.c.e|(ag).e.G.c.e|(gf).d.G.B.d|(gf).d.G.B.d|c2z||!
DGB|(ed)BDGB|(ed)BDGB|(dc)AD^FA|(cB)AD^FA|!
(ed)BDGB|(ed)BDGB|(dc)AD^FA|G2z|]
